X: 16838
T: Harvest Home, The
R: hornpipe
M: 4/4
K: Gmajor
|:BdGd BdGd|gbab gfed|eAab c'abg|(3aba (3gfe dcBA|
BdGd BdGd|gbaf gfed|(3efg ab c'afa|g2 gf [1 gedc:|2 gd (3efg||
ad (3ddd ed (3ddd|c' (3ddd ed (3ddd|eAab c'abg|(3aba (3gfe dcBA|
BdGd BdGd|gbaf gfed|(3efg ab c'afa|g2 gf [1 gd (3efg|2 gedc:|

